!! 00000] TT[00
!! NN
!!!OTL: Xiu xiangdai
!!!ARE: Asia, China,ˇHubei, Hefeng
!! Ethnic Group: Han
!! I, 456
!!!SCT: C0116
!!!YEM: Copyright 1995, estate of Helmut Schaffrath.
**kern
*ICvox
*Ivox
!! Mixed meters:  2/4; 1/4
*M2/4
*k[b-]
*F:
{16dd
16ff
4dd
16a
16cc
=1
8dd
16ff
16dd
8cc
8a
=2
8.dd
16ff
16dd
16cc
16a
16g
=3
8cc
16g
16a
4cc}
=4
{8.dd
16ff
16dd
16cc
16g
16a
=5
8cc
16g
16a
4cc}
=6
*M1/4
{8a
8a
=7
8cc
16g
16a
=8
8g
8a
=9
8a
16g
16a
=10
8g
8a
=11
8cc
8g
=12
8a
16g
16a
=13
8a
8g
=14
8f
8a
=15
*M2/4
4.g}
{16e
16f
=16
8d
4d
8f
=17
8.g
16a
8g
8f
=18
8f
16f
16d
8g
16g
16f
=19
2d}
==
!!!AGN: Xiaodiao. FunÅ shenghuo
!! 
!!!ONB: ESAC (Essen Associative Code) Database: CHINA
!!!AMT: irregular
!!!AIN: vox
!!!EED: Helmut Schaffrath
!!!EEV: 1.0
*-
